src/assets/icons/wire.svg

<?xml version="1.0" encoding="UTF-8"?>
<svg width="21px" height="19px" viewBox="0 0 21 19" version="1.1" xmlns="http://www.w3.org/2000/svg" xmlns:xlink="http://www.w3.org/1999/xlink">
    <!-- Generator: Sketch 62 (91390) - https://sketch.com -->
    <title>iconfinder_currency_2318459 (1) 2</title>
    <desc>Created with Sketch.</desc>
    <g id="Symbols" stroke="none" stroke-width="1" fill="none" fill-rule="evenodd">
        <g id="elements/post/pay" transform="translate(-37.000000, -1.000000)" fill="#7D7D82" fill-rule="nonzero">
            <g id="iconfinder_currency_2318459-(1)-2" transform="translate(37.000000, 1.000000)">
                <g id="iconfinder_currency_2318459-(1)">
                    <path d="M15.306383,6.05231788 C12.4851064,6.05231788 9.62553191,5.01423841 9.62553191,3.03874172 C9.62553191,1.06324503 12.4851064,0.0251655629 15.306383,0.0251655629 C18.1276596,0.0251655629 20.987234,1.06324503 20.987234,3.03874172 C20.987234,5.01423841 18.1276596,6.05231788 15.306383,6.05231788 Z M15.306383,1.74900662 C12.7531915,1.74900662 11.3744681,2.66754967 11.3744681,3.03874172 C11.3744681,3.41622517 12.7531915,4.32847682 15.306383,4.32847682 C17.8595745,4.32847682 19.2382979,3.40993377 19.2382979,3.03874172 C19.2382979,2.66125828 17.8595745,1.74900662 15.306383,1.74900662 Z" id="Shape"></path>
                    <path d="M15.306383,9.5 C12.4851064,9.5 9.62553191,8.46192053 9.62553191,6.48642384 L9.62553191,3.03874172 L11.3744681,3.03874172 L11.3744681,6.48642384 C11.3744681,6.86390728 12.7531915,7.77615894 15.306383,7.77615894 C17.8595745,7.77615894 19.2382979,6.85761589 19.2382979,6.48642384 L19.2382979,3.03874172 L20.987234,3.03874172 L20.987234,6.48642384 C20.987234,8.46192053 18.1276596,9.5 15.306383,9.5 Z" id="Path"></path>
                    <path d="M15.306383,12.9413907 C12.4851064,12.9413907 9.62553191,11.9033113 9.62553191,9.92781457 L9.62553191,6.48013245 L11.3744681,6.48013245 L11.3744681,9.92781457 C11.3744681,10.305298 12.7531915,11.2175497 15.306383,11.2175497 C17.8595745,11.2175497 19.2382979,10.2990066 19.2382979,9.92781457 L19.2382979,6.48013245 L20.987234,6.48013245 L20.987234,9.92781457 C20.987234,11.9096026 18.1276596,12.9413907 15.306383,12.9413907 Z" id="Path"></path>
                    <path d="M15.306383,16.3890728 C12.4851064,16.3890728 9.62553191,15.3509934 9.62553191,13.3754967 L9.62553191,9.92781457 L11.3744681,9.92781457 L11.3744681,13.3754967 C11.3744681,13.7529801 12.7531915,14.6652318 15.306383,14.6652318 C17.8595745,14.6652318 19.2382979,13.7466887 19.2382979,13.3754967 L19.2382979,9.92781457 L20.987234,9.92781457 L20.987234,13.3754967 C20.987234,15.3509934 18.1276596,16.3890728 15.306383,16.3890728 Z" id="Path"></path>
                    <path d="M5.69361702,12.0794702 C2.87234043,12.0794702 0.0127659574,11.0413907 0.0127659574,9.06589404 C0.0127659574,7.09039735 2.87234043,6.05231788 5.69361702,6.05231788 C8.51489362,6.05231788 11.3744681,7.09039735 11.3744681,9.06589404 C11.3744681,11.0413907 8.51489362,12.0794702 5.69361702,12.0794702 Z M5.69361702,7.77615894 C3.14042553,7.77615894 1.76170213,8.69470199 1.76170213,9.06589404 C1.76170213,9.44337748 3.14042553,10.3556291 5.69361702,10.3556291 C8.24680851,10.3556291 9.62553191,9.43708609 9.62553191,9.06589404 C9.62553191,8.69470199 8.24680851,7.77615894 5.69361702,7.77615894 Z" id="Shape"></path>
                    <path d="M5.69361702,15.5271523 C2.87234043,15.5271523 0.0127659574,14.4890728 0.0127659574,12.5135762 L0.0127659574,9.06589404 L1.76170213,9.06589404 L1.76170213,12.5135762 C1.76170213,12.8910596 3.14042553,13.8033113 5.69361702,13.8033113 C8.24680851,13.8033113 9.62553191,12.8847682 9.62553191,12.5135762 L9.62553191,9.06589404 L11.3744681,9.06589404 L11.3744681,12.5135762 C11.3744681,14.4890728 8.51489362,15.5271523 5.69361702,15.5271523 Z" id="Path"></path>
                    <path d="M5.69361702,18.968543 C2.87234043,18.968543 0.0127659574,17.9304636 0.0127659574,15.9549669 L0.0127659574,12.5072848 L1.76170213,12.5072848 L1.76170213,15.9549669 C1.76170213,16.3324503 3.14042553,17.244702 5.69361702,17.244702 C8.24680851,17.244702 9.62553191,16.3261589 9.62553191,15.9549669 L9.62553191,12.5072848 L11.3744681,12.5072848 L11.3744681,15.9549669 C11.3744681,17.936755 8.51489362,18.968543 5.69361702,18.968543 Z" id="Path"></path>
                </g>
            </g>
        </g>
    </g>
</svg>

<?xml version="1.0" encoding="UTF-8"?>
<svg version="1.1" viewBox="0 0 21 19" xmlns="http://www.w3.org/2000/svg">
<g fill="none" fill-rule="evenodd">
<g transform="translate(-37 -1)" fill="#7D7D82" fill-rule="nonzero">
<g transform="translate(37 1)">
<path id="a" d="m15.306 6.0523c-2.8213 0-5.6809-1.0381-5.6809-3.0136s2.8596-3.0136 5.6809-3.0136 5.6809 1.0381 5.6809 3.0136-2.8596 3.0136-5.6809 3.0136zm0-4.3033c-2.5532 0-3.9319 0.91854-3.9319 1.2897 0 0.37748 1.3787 1.2897 3.9319 1.2897s3.9319-0.91854 3.9319-1.2897c0-0.37748-1.3787-1.2897-3.9319-1.2897z"/>
<path id="Path" d="m15.306 9.5c-2.8213 0-5.6809-1.0381-5.6809-3.0136v-3.4477h1.7489v3.4477c0 0.37748 1.3787 1.2897 3.9319 1.2897s3.9319-0.91854 3.9319-1.2897v-3.4477h1.7489v3.4477c0 1.9755-2.8596 3.0136-5.6809 3.0136z"/>
<path id="Path" d="m15.306 12.941c-2.8213 0-5.6809-1.0381-5.6809-3.0136v-3.4477h1.7489v3.4477c0 0.37748 1.3787 1.2897 3.9319 1.2897s3.9319-0.91854 3.9319-1.2897v-3.4477h1.7489v3.4477c0 1.9818-2.8596 3.0136-5.6809 3.0136z"/>
<path id="Path" d="m15.306 16.389c-2.8213 0-5.6809-1.0381-5.6809-3.0136v-3.4477h1.7489v3.4477c0 0.37748 1.3787 1.2897 3.9319 1.2897s3.9319-0.91854 3.9319-1.2897v-3.4477h1.7489v3.4477c0 1.9755-2.8596 3.0136-5.6809 3.0136z"/>
<path d="m5.6936 12.079c-2.8213 0-5.6809-1.0381-5.6809-3.0136 0-1.9755 2.8596-3.0136 5.6809-3.0136 2.8213 0 5.6809 1.0381 5.6809 3.0136 0 1.9755-2.8596 3.0136-5.6809 3.0136zm0-4.3033c-2.5532 0-3.9319 0.91854-3.9319 1.2897 0 0.37748 1.3787 1.2897 3.9319 1.2897s3.9319-0.91854 3.9319-1.2897-1.3787-1.2897-3.9319-1.2897z"/>
<path id="b" d="m5.6936 15.527c-2.8213 0-5.6809-1.0381-5.6809-3.0136v-3.4477h1.7489v3.4477c0 0.37748 1.3787 1.2897 3.9319 1.2897s3.9319-0.91854 3.9319-1.2897v-3.4477h1.7489v3.4477c0 1.9755-2.8596 3.0136-5.6809 3.0136z"/>
<path d="m5.6936 18.969c-2.8213 0-5.6809-1.0381-5.6809-3.0136v-3.4477h1.7489v3.4477c0 0.37748 1.3787 1.2897 3.9319 1.2897s3.9319-0.91854 3.9319-1.2897v-3.4477h1.7489v3.4477c0 1.9818-2.8596 3.0136-5.6809 3.0136z"/>
</g>
</g>
</g>
</svg>
